X:1
T:Title
%%score { 1 | ( 2 3 ) }
L:1/8
M:4/4
K:Ab
V:1 treble nm="Grand Piano"
V:2 bass 
V:3 bass 
V:1
 z4 z2[Q:1/4=100] (3[CE][DF][DG] | [CA]2 [CA]4 (3BAB | [Ec]2 [Ec]4 (3[Ec][Fd][Ec] | c2 B4 (3BcB | %4
 [DB]2 [CA]4 (3[CE][DF][DG] | [CA]2 [CA]4 (3BAB | c2 c4 (3e[E=d][Ec] | %7
 [Ec]2 [EB]4 (3[=DF][DG][DF] | E2 E4 (3EGB | d3 c B2 cd | [Ec]3 [EB] [EA]2 [=Ec]>[EB] | %11
 [FA]2 [=Ec]>[EB] [FA]2 [FB]2 |[M:7/8] [=Ec]- [Ec]3 [_Ed]3 |[M:1/4] (3EFG | %14
[M:4/4] [CA]2 [CA]4 (3BAB | [Ec]2 [Ec]4 (3[Ec][Fd][Ec] | c2 B4 (3BcB | [DB]2 [CA]4 (3[CE][DF][DG] | %18
 [CA]2 [CA]4 (3BAB | c2 c2 d2 [Af]2 | [Ae]2 (3[Ae][Ac]A E2 (3EF[DEG] |[M:3/4] [CEA]6 | %22
[M:1/4] [G,E]>[B,EG] |[M:4/4] [GB]>[_G=A] [=GB]>[_GA] [=GB]2 (3[Bd][_Ac][GB] | %24
 c>_c =c>_c =c2 [CGc]>[CGB] | [CFA]2 [C=Ec]>[CEB] [CFA]2 .[DFB]2 |[M:7/8] [=Ec]- [Ec]3 [_Ed]3 | %27
[M:1/4] (3EFG |[M:4/4] [CA]2 [CA]4 (3BAB | [Ec]2 [Ec]4 (3[Ec][Fd][Ec] | c2 B4 (3BcB | %31
 [DB]2 [CA]4 (3[CE][DF][DG] | [CA]2 [CA]4 (3BAB | c2 c2 d2 [Af]2 | [Ae]2 (3[Ae][Ac]A E2 (3EF[DEG] | %35
[M:7/4] [CEA]6 z2 z2 z4 |] %36
V:2
 z4 z2 (3[A,,A,][A,,A,][A,,A,] | [A,,A,]2 [A,,A,]4 (3[E,G,D][E,A,C][E,G,D] | %2
 [A,,A,]2 [A,,A,]4 (3[A,,A,][A,,A,][A,,A,] | [E,A,E]2 [E,G,E]4 (3[E,G,D][E,G,E][E,G,D] | %4
 [A,,A,]2 [A,,A,]4 (3[A,,A,][A,,A,][A,,A,] | [A,,A,]2 [A,,A,]4 (3[E,G,D][E,A,C][E,G,D] | %6
 [A,E]2 [A,E]4 (3[A,,CE][A,,B,][A,,A,] | [B,,G,]2 [B,,G,]4 (3[B,,A,][B,,B,][B,,A,] | %8
 [E,G,]2 [E,G,]4 (3[E,G,][E,B,E][E,G,E] | [E,B,E]3 [E,A,E] [E,G,E]2 [E,A,E][E,B,E] | %10
 [A,,A,]3 [B,,G,] [C,A,]2 [C,G,]>[C,C] | [F,C]2 [C,C]>[C,C] [F,C]2 [D,G,]2 | %12
[M:7/8] [C,G,]- [C,G,]3 [B,,G,]3 |[M:1/4] (3[E,G,][E,A,D][E,B,D] | %14
[M:4/4] [A,,A,]2 [A,,A,]4 (3[E,G,D][E,A,C][E,G,D] | [A,,A,]2 [A,,A,]4 (3[A,,A,][A,,A,][A,,A,] | %16
 [E,A,E]2 [E,G,E]4 (3[E,G,D][E,G,E][E,G,D] | [A,,A,]2 [A,,A,]4 (3[A,,A,][A,,A,][A,,A,] | %18
 [A,,A,]2 [A,,A,]4 (3[E,G,D][E,A,C][E,G,D] | [A,E]2 [_G,A,E]2 [F,A,D]2 [D,D]2 | %20
 [E,C]2 (3[E,C][E,E][E,CE] [E,C]2 (3[E,C][E,DE]D, |[M:3/4] A,,6 |[M:1/4] E,>E, | %23
[M:4/4] [E,E]>[E,E] [E,E]>[E,E] [E,E]2 (3[E,E][E,E][E,E] | %24
 [A,EA]>[A,EG] [A,EA]>[A,EG] [A,EA]2[K:bass] =E,>E, | F,2 C,>C, F,2 z G, | %26
[M:7/8] [C,G,]- [C,G,]3 [B,,G,]3 |[M:1/4] (3[E,G,][E,A,D][E,B,D] | %28
[M:4/4] [A,,A,]2 [A,,A,]4 (3[E,G,D][E,A,C][E,G,D] | [A,,A,]2 [A,,A,]4 (3[A,,A,][A,,A,][A,,A,] | %30
 [E,A,E]2 [E,G,E]4 (3[E,G,D][E,G,E][E,G,D] | [A,,A,]2 [A,,A,]4 (3[A,,A,][A,,A,][A,,A,] | %32
 [A,,A,]2 [A,,A,]4 (3[E,G,D][E,A,C][E,G,D] | [A,E]2 [_G,A,E]2 [F,A,D]2 [D,D]2 | %34
 [E,C]2 (3[E,C][E,E][E,CE] [E,C]2 (3[E,C][E,DE]D, |[M:7/4] A,,6 z2 z2 z4 |] %36
V:3
 x8 | x8 | x8 | x8 | x8 | x8 | x8 | x8 | x8 | x8 | x8 | x8 |[M:7/8] x7 |[M:1/4] x2 |[M:4/4] x8 | %15
 x8 | x8 | x8 | x8 | x8 | x8 |[M:3/4] x6 |[M:1/4] x2 |[M:4/4] x8 | x6[K:bass] x2 | z4 z2 D,2 | %26
[M:7/8] x7 |[M:1/4] x2 |[M:4/4] x8 | x8 | x8 | x8 | x8 | x8 | x8 |[M:7/4] x14 |] %36

